assets/images/script/p-1-beg.svg

<svg fill="none" height="224" viewBox="0 0 352 224" width="352" xmlns="http://www.w3.org/2000/svg"><path d="m60.5537 139.32c-4.5527 0 .5487-1.394 2.3946-1.824 27.1807-6.339 56.3617-18.669 80.3807-33.168 10.954-6.6117 22.779-19.1605 4.47-25.953-28.733-10.6599-69.8819 2.0685-93.9504 18.8224-5.6911 3.9616-19.822 14.0426-14.6872 23.2166 5.6498 10.095 23.6587 8.34 32.727 8.126 30.8116-.724 69.4186-10.658 96.9036 8.79 14.867 10.519 23.953 41.328 7.903 55.569-22.625 20.075-48.195 30.101-91.7158 27.305-16.5661-1.766-30.9792-4.031-48.452-10.437-10.5065-3.852-22.1722-10.379-28.17714-20.906-18.19225-31.89 14.09254-91.8333 35.84014-111.6469 37.1343-33.8319 87.3848-55.8427 135.1388-67.24652 41.408-9.8883769 87.871-12.08701 124.522 12.60352 16.939 11.4112 42.223 27.8713 44.86 50.9117 3.159 27.6052-20.136 51.1162-43.503 59.4522-11.755 4.194-26.702 6.108-36.798-3.234-7.388-6.836-12.551-21.038-6.306-30.2648 8.737-12.9079 30.815-16.3764 44.461-18.8224 7.628-1.3673 18.741-4.68 22.67 3.4826" stroke="#000" stroke-linecap="round" stroke-width="5"/></svg>

<svg width="352" height="224" viewBox="0 0 352 224" fill="none" xmlns="http://www.w3.org/2000/svg">
<path d="M60.5537 139.32C56.001 139.32 61.1024 137.926 62.9483 137.496C90.129 131.157 119.31 118.827 143.329 104.328C154.283 97.7163 166.108 85.1675 147.799 78.375C119.066 67.7151 77.9171 80.4435 53.8486 97.1974C48.1575 101.159 34.0266 111.24 39.1614 120.414C44.8112 130.509 62.8201 128.754 71.8884 128.54C102.7 127.816 141.307 117.882 168.792 137.33C183.659 147.849 192.745 178.658 176.695 192.899C154.07 212.974 128.5 223 84.9792 220.204C68.4131 218.438 54 216.173 36.5272 209.767C26.0207 205.915 14.355 199.388 8.35006 188.861C-9.84219 156.971 22.4426 97.0277 44.1902 77.2141C81.3245 43.3822 131.575 21.3714 179.329 9.96758C220.737 0.0792031 267.2 -2.11943 303.851 22.5711C320.79 33.9823 346.074 50.4424 348.711 73.4828C351.87 101.088 328.575 124.599 305.208 132.935C293.453 137.129 278.506 139.043 268.41 129.701C261.022 122.865 255.859 108.663 262.104 99.4362C270.841 86.5283 292.919 83.0598 306.565 80.6138C314.193 79.2465 325.306 75.9338 329.235 84.0964" stroke="black" stroke-width="5" stroke-linecap="round"/>
</svg>
